assets/svg/1F686.svg

<svg xmlns="http://www.w3.org/2000/svg" viewBox="0 0 64 64" enable-background="new 0 0 64 64"><path fill="#86a7ac" d="m60.03 63.999h-56.07l9.415-21.659h37.24z"/><path fill="#d1d2d3" d="m55.984 24.762c0 13.675-5.411 24.761-12.09 24.761h-23.796c-6.674 0-12.09-11.09-12.09-24.761l0 0c-.0001-13.676 5.411-24.762 12.09-24.762h23.797c6.674 0 12.09 11.09 12.09 24.762l0 0"/><path fill="#bcbdbf" d="m9.404 13.257c-.885 3.439-1.389 7.35-1.389 11.505 0 13.675 5.412 24.761 12.09 24.761h23.797c3.06 0 5.85-2.352 7.979-6.198-8.237-2.856-32.872-1.18-42.473-30.07"/><g fill="#f0f1f2"><path d="m56.44 25.749c0 14.178-5.159 18.857-12.08 18.857h-7.02c9.772-13.489 19.1-21.06 19.1-18.857"/><path d="m7.567 25.749c0 14.178 5.16 18.857 12.08 18.857h7.02c-9.775-13.489-19.1-21.06-19.1-18.857"/></g><g fill="#66b1de"><path d="m13.465 10.77c.74-.904 14.954-1.808 15.449 0 .494 1.808 2.055 12.162 0 12.654-2.056.494-14.462-2.466-15.449-4.765-.985-2.302-.738-6.986 0-7.889"/><path d="m50.52 10.77c-.74-.904-14.954-1.808-15.448 0s-2.056 12.162 0 12.654c2.056.494 14.462-2.466 15.448-4.765.986-2.302.74-6.986 0-7.889"/></g><path fill="#63797b" d="m54.888 63.999h-45.774l7.687-17.679h30.399z"/><g fill="#86a7ac"><path d="m11.03 50.55h40.988v4.611h-40.988z"/><path d="m60.03 63.999h-56.07l1.824-4.194h52.42z"/></g><g fill="#1181a8"><path d="m55.58 28.601c0 13.675-4.977 18.19-11.651 18.19h-6.769c9.426-13.01 18.42-20.308 18.42-18.19"/><path d="m8.45 28.601c0 13.675 4.978 18.19 11.652 18.19h6.769c-9.427-13.01-18.421-20.308-18.421-18.19"/></g><g fill="#29abe2"><path d="m8.45 31.391c0 13.676 4.978 18.19 11.652 18.19h6.769c-9.427-13.01-18.421-20.31-18.421-18.19"/><path d="m55.58 31.391c0 13.676-4.977 18.19-11.651 18.19h-6.769c9.426-13.01 18.42-20.31 18.42-18.19"/></g><path fill="#1181a8" d="m50.3 49.02c0 3.606-11.11 10.489-18.303 10.489-7.195 0-18.299-6.883-18.299-10.489s11.1-4.908 18.299-4.908c7.195 0 18.303 1.302 18.303 4.908"/><path fill="#29abe2" d="m49.719 48.28c0 3.492-10.754 10.159-17.719 10.159-6.967 0-17.716-6.667-17.716-10.159 0-3.49 10.75-4.749 17.716-4.749 6.965 0 17.719 1.259 17.719 4.749"/><g fill="#fbed21"><path d="m52.895 41.532c0 1.608-.955 3.074-2.136 3.074h-4.269c-1.181 0-2.136-1.466-2.136-3.074l0 0c0-1.613.955-3.074 2.136-3.074h4.269c1.18 0 2.136 1.461 2.136 3.074l0 0"/><path d="m19.569 41.532c0 1.608-.955 3.074-2.135 3.074h-4.269c-1.181 0-2.136-1.466-2.136-3.074l0 0c0-1.613.955-3.074 2.136-3.074h4.269c1.181 0 2.135 1.461 2.135 3.074l0 0"/></g></svg>

<?xml version="1.0" encoding="UTF-8" standalone="no"?>
<!-- Generator: Adobe Illustrator 16.0.0, SVG Export Plug-In . SVG Version: 6.00 Build 0)  -->

<svg
   xmlns:dc="http://purl.org/dc/elements/1.1/"
   xmlns:cc="http://creativecommons.org/ns#"
   xmlns:rdf="http://www.w3.org/1999/02/22-rdf-syntax-ns#"
   xmlns:svg="http://www.w3.org/2000/svg"
   xmlns="http://www.w3.org/2000/svg"
   xmlns:sodipodi="http://sodipodi.sourceforge.net/DTD/sodipodi-0.dtd"
   xmlns:inkscape="http://www.inkscape.org/namespaces/inkscape"
   version="1.1"
   id="Layer_1"
   x="0px"
   y="0px"
   width="64px"
   height="64px"
   viewBox="0 0 64 64"
   enable-background="new 0 0 64 64"
   xml:space="preserve"
   inkscape:version="0.48.5 r10040"
   sodipodi:docname="1F686.svg"
   inkscape:export-filename="D:\TESTINGEMOJI\SVGTEST\1F686.png"
   inkscape:export-xdpi="90"
   inkscape:export-ydpi="90"><metadata
   id="metadata4348"><rdf:RDF><cc:Work
       rdf:about=""><dc:format>image/svg+xml</dc:format><dc:type
         rdf:resource="http://purl.org/dc/dcmitype/StillImage" /><dc:title></dc:title></cc:Work></rdf:RDF></metadata><defs
   id="defs4346" /><sodipodi:namedview
   pagecolor="#ffffff"
   bordercolor="#666666"
   borderopacity="1"
   objecttolerance="10"
   gridtolerance="10"
   guidetolerance="10"
   inkscape:pageopacity="0"
   inkscape:pageshadow="2"
   inkscape:window-width="640"
   inkscape:window-height="480"
   id="namedview4344"
   showgrid="false"
   inkscape:zoom="3.6875"
   inkscape:cx="32"
   inkscape:cy="32"
   inkscape:window-x="418"
   inkscape:window-y="251"
   inkscape:window-maximized="0"
   inkscape:current-layer="Layer_1" />
<g
   id="g4300">
	<polygon
   fill="#86A7AC"
   points="60.035,63.999 3.964,63.999 13.379,42.341 50.617,42.341  "
   id="polygon4302" />
</g>
<g
   id="g4304">
	<path
   fill="#D1D2D3"
   d="M55.984,24.762c0,13.675-5.411,24.761-12.086,24.761H20.102c-6.674,0-12.086-11.086-12.086-24.761l0,0   C8.015,11.086,13.427,0,20.102,0h23.797C50.573,0,55.984,11.086,55.984,24.762L55.984,24.762z"
   id="path4306" />
</g>
<g
   id="g4308">
	<path
   fill="#BCBDBF"
   d="M9.404,13.257c-0.885,3.439-1.389,7.35-1.389,11.505c0,13.675,5.412,24.761,12.086,24.761h23.797   c3.06,0,5.85-2.352,7.979-6.198C43.64,40.469,19.005,42.145,9.404,13.257z"
   id="path4310" />
</g>
<path
   fill="#F0F1F2"
   d="M56.435,25.749c0,14.178-5.159,18.857-12.08,18.857h-7.017C47.11,31.117,56.435,23.547,56.435,25.749z"
   id="path4312" />
<path
   fill="#F0F1F2"
   d="M7.567,25.749c0,14.178,5.16,18.857,12.081,18.857h7.019C16.892,31.117,7.567,23.547,7.567,25.749z"
   id="path4314" />
<path
   fill="#66B1DE"
   d="M13.465,10.77c0.74-0.904,14.954-1.808,15.449,0c0.494,1.808,2.055,12.162,0,12.654  c-2.056,0.494-14.462-2.466-15.449-4.765C12.48,16.357,12.727,11.673,13.465,10.77z"
   id="path4316" />
<path
   fill="#66B1DE"
   d="M50.524,10.77c-0.74-0.904-14.954-1.808-15.448,0s-2.056,12.162,0,12.654  c2.056,0.494,14.462-2.466,15.448-4.765C51.51,16.357,51.264,11.673,50.524,10.77z"
   id="path4318" />
<g
   id="g4320">
	<polygon
   fill="#63797B"
   points="54.888,63.999 9.114,63.999 16.801,46.319 47.198,46.319  "
   id="polygon4322" />
</g>
<rect
   x="11.029"
   y="50.546"
   fill="#86A7AC"
   width="40.988"
   height="4.611"
   id="rect4324" />
<polygon
   fill="#86A7AC"
   points="60.035,63.999 3.964,63.999 5.788,59.805 58.21,59.805 "
   id="polygon4326" />
<path
   fill="#1181A8"
   d="M55.584,28.601c0,13.675-4.977,18.186-11.651,18.186h-6.769C46.59,33.778,55.584,26.479,55.584,28.601z"
   id="path4328" />
<path
   fill="#1181A8"
   d="M8.45,28.601c0,13.675,4.978,18.186,11.652,18.186h6.769C17.444,33.778,8.45,26.479,8.45,28.601z"
   id="path4330" />
<path
   fill="#29ABE2"
   d="M8.45,31.391c0,13.676,4.978,18.187,11.652,18.187h6.769C17.444,36.568,8.45,29.268,8.45,31.391z"
   id="path4332" />
<path
   fill="#29ABE2"
   d="M55.584,31.391c0,13.676-4.977,18.187-11.651,18.187h-6.769C46.59,36.568,55.584,29.268,55.584,31.391z"
   id="path4334" />
<path
   fill="#1181A8"
   d="M50.303,49.025c0,3.606-11.107,10.489-18.303,10.489c-7.195,0-18.299-6.883-18.299-10.489  S24.805,44.117,32,44.117C39.195,44.117,50.303,45.419,50.303,49.025z"
   id="path4336" />
<path
   fill="#29ABE2"
   d="M49.719,48.276c0,3.492-10.754,10.159-17.719,10.159c-6.967,0-17.716-6.667-17.716-10.159  c0-3.49,10.75-4.749,17.716-4.749C38.965,43.527,49.719,44.786,49.719,48.276z"
   id="path4338" />
<path
   fill="#FBED21"
   d="M52.895,41.532c0,1.608-0.955,3.074-2.136,3.074H46.49c-1.181,0-2.136-1.466-2.136-3.074l0,0  c0-1.613,0.955-3.074,2.136-3.074h4.269C51.939,38.458,52.895,39.919,52.895,41.532L52.895,41.532z"
   id="path4340" />
<path
   fill="#FBED21"
   d="M19.569,41.532c0,1.608-0.955,3.074-2.135,3.074h-4.269c-1.181,0-2.136-1.466-2.136-3.074l0,0  c0-1.613,0.955-3.074,2.136-3.074h4.269C18.615,38.458,19.569,39.919,19.569,41.532L19.569,41.532z"
   id="path4342" />
</svg>
